**kern	**kern	**dynam
*part1	*part1	*part1
*staff2	*staff1	*
*I"Piano	*	*
*clefF4	*clefG2	*
*k[]	*k[]	*
=1	=1	=1
4GG 4G	8r	.
.	8gL 8dd	.
4G 4d	8bJ 8gg	.
.	8r	.
=	=	=
!	!	!LO:DY:a
8FL	4B 4d	p
8G	.	.
8E	4c 4e	.
8GJ	.	.
=	=	=
8DL	4B 4f	.
8G	.	.
8F#X	4r	.
8GJ	.	.
=	=	=
8DL	4B 4f	.
8G	.	.
8C	4A 4e-X 4f#X	.
8DJ	.	.
=	=	=
8BBL	4G 4d 4g	.
8D	.	.
8C#X	4r	.
8DJ	.	.
=	=	=
!	!	!LO:DY:a
8BBL	2G 2d 2g	<
8D	.	.
8C#X	.	.
8DJ	.	[[
=	=	=
*	*^	*
!	!	!	!LO:DY:a
8AAL	4.c 4.cc	2d 2f#X	f
8D	.	.	.
8C#X	.	.	.
8DJ	8d 8dd	.	.
*	*v	*v	*
=	=	=
!	!	!LO:DY:a
8r	(((2c: [2d: 2fn: 2cc:	>
8GGGL	.	.
8DD	.	.
8GGJ	.	]]
=	=	=
*-	*-	*-
!!!system-decoration: {(s1,s2)}
